X:2714
T:Cascade
M:2/4
L:1/8
R:Polka
K:G
|:BA/2B/2 cD|ED AD|BA/2B/2 dG|BAA2|BA/2B/2 cD|ED AD|BA/2B/2 dA|BGG2:|
|:Bd dB/2d/2|eB dG|BA/2B/2 dG|BA Ac|Bd dB/2d/2|eB dG|BA/2B/2 dA|BGG2:|


